X:1
T:I send the joys of earth away
T:I send the joys of earth away - Norbury (W. J. White)
C:W. J. White
Z:p42, The Sacred Herald,
Z:ed. W. J. White,
Z:London: [c1820]
%%score [ 1 2 3 4 ]
L:1/8
M:2/2
K:Bb
V:1 treble nm="Soprano" snm="S."
V:2 treble nm="Alto" snm="A."
V:3 treble-8 transpose=-12 nm="Tenor" snm="T."
V:4 bass nm="Bass" snm="B."
V:1
 B4 d2 f2 | c4 e4 | (d2 cB A2) B2 | !wedge!c4 z2 f2 | (f2 ed e2) e2 | (e2 dc d2) e2 | d4 c4 | %7
w: Lord, I ad-|ore thy|match- * * * less|grace, That|warn’d _ _ _ me|of _ _ _ that|dark a-|
w: I send the|joys of|earth _ _ _ a-|way, A-|way, _ _ _ ye|temp- * * * ters|of the|
w: Your streams were|float- ing|me _ _ _ a-|long, Down|to _ _ _ the|gulf _ _ _ of|black de-|
 !fermata!B6 c2 | c4 B4 | (A2 c2 f2) F2 | (A3 c) (cBAG) | F6 f2 | f4 e4 | (dBec f2) e2 | d4 c4 | %15
w: byss, That|drew me|from _ _ those|treach- * ’rous _ _ _|seas, And|bade me|seek _ _ _ _ su-|per- ior|
w: mind; False|as the|smooth _ _ de-|ceit- * ful _ _ _|sea, And|emp- ty|as _ _ _ _ the|whist- ling|
w: spair; And|whilst I|lis- * * ten’d|to _ your _ _ _|song, Your|streams had|e’en _ _ _ _ con-|vey’d me|
 B8 |] %16
w: bliss.|
w: wind.|
w: there.|
V:2
 F4 F2 F2 | F4 B4 | (B4 F2) F2 | !wedge!F4 z4 | z2 A2 A2 A2 | (A2 F2 B2) G2 | F4 [EF]4 | %7
w: Lord, I ad-|ore thy|match- * less|grace,|That warn’d me|of _ _ that|dark a-|
w: I send the|joys of|earth _ a-|way,|A- way, ye|temp- * * ters|of the|
w: Your streams were|float- ing|me _ a-|long,|Down to the|gulf _ _ of|black de-|
 !fermata![DF]6 F2 | G4 G4 | (F2 A4) F2 | (F3 A) (AGF=E) | F6 z2 | z2 F2 F2 F2 | (F2 E2 D2) G2 | %14
w: byss, That|drew me|from _ those|treach- * ’rous _ _ _|seas,|And bade me|seek _ _ su-|
w: mind; False|as the|smooth _ de-|ceit- * ful _ _ _|sea,|And emp- ty|as _ _ the|
w: spair; And|whilst I|lis- * ten’d|to _ your _ _ _|song,|Your streams had|e’en _ _ con-|
 F4 [EF]4 | [DF]8 |] %16
w: per- ior|bliss.|
w: whist- ling|wind.|
w: vey’d me|there.|
V:3
 d4 d2 B2 | c4 B4 | (d4 c2) d2 | !wedge!c4 z2 d2 | (d2 cB c2) c2 | (c2 BA B2) B2 | B4 A4 | %7
w: Lord, I ad-|ore thy|match- * less|grace, That|warn’d _ _ _ me|of _ _ _ that|dark a-|
w: I send the|joys of|earth _ a-|way, A-|way, _ _ _ ye|temp- * * * ters|of the|
w: Your streams were|float- ing|me _ a-|long, Down|to _ _ _ the|gulf _ _ _ of|black de-|
 !fermata!B6 A2 | c4 c4 | c4 c4 | c4 c4 | c6 d2 | (d2 c2) c4 | (B2 A2 B2) B2 | B4 A4 | B8 |] %16
w: byss, That|drew me|from those|treach- ’rous|seas, And|bade _ me|seek _ _ su-|per- ior|bliss.|
w: mind; False|as the|smooth de-|ceit- ful|sea, And|emp- * ty|as _ _ the|whist- ling|wind.|
w: spair; And|whilst I|lis- ten’d|to your|song, Your|streams _ had|e’en _ _ con-|vey’d me|there.|
V:4
 B,4 B,2 B,2 | A,4 G,4 | (F,2 E,D, C,2) B,,2 | !wedge!F,4 z4 | z2 F,2 F,2 F,2 | (F,2 A,2 B,2) E,2 | %6
w: Lord, I ad-|ore thy|match- * * * less|grace,|That warn’d me|of _ _ that|
w: I send the|joys of|earth _ _ _ a-|way,|A- way, ye|temp- * * ters|
w: Your streams were|float- ing|me _ _ _ a-|long,|Down to the|gulf _ _ of|
 F,4 F,4 | !fermata!B,,6 F,2 | =E,4 C,4 | F,4 A,4 | C4 C,4 | %11
w: dark a-|byss, That|drew me|from those|treach- ’rous|
w: of the|mind; False|as the|smooth de-|ceit- ful|
w: black de-|spair; And|whilst I|lis- ten’d|to your|
"^Notes:The time signature in the source is retorted time.The order of staves in the original is Tenor - Alto - Soprano - Bass, with the alto and tenor parts given in the trebleclef an octave above sounding pitch. The Soprano and Bass staves are bracketed together and a keyboardaccompaniment is indicated between these parts with small notes: this keyboard accompaniment has been omittedfrom the present edition.In addition to the first verse of the text, which is given in the source, subsequent verses of the text have here beenprovided editorially." F,6 z2 | %12
w: seas,|
w: sea,|
w: song,|
 z2"^There, from the bosom of my God,Oceans of endless pleasure roll;There would I fix my last abode,And drown the sorrows of my soul." F,2 A,2 F,2 | %13
w: And bade me|
w: And emp- ty|
w: Your streams had|
 (B,,2 C,2 D,2) E,2 | F,4 [F,,F,]4 | B,,8 |] %16
w: seek _ _ su-|per- ior|bliss.|
w: as _ _ the|whist- ling|wind.|
w: e’en _ _ con-|vey’d me|there.|

